src/svg/mail.svg

<svg version="1.2" baseProfile="tiny" xmlns="http://www.w3.org/2000/svg" width="24" height="24" viewBox="0 0 24 24"><path d="M19 7h-14c-1.104 0-2 .896-2 2v9c0 1.104.896 2 2 2h14c1.104 0 2-.896 2-2v-9c0-1.104-.896-2-2-2zm-9.684 7.316l1.602 1.4c.305.266.691.398 1.082.398s.777-.133 1.082-.398l1.602-1.4-.037.037 3.646 3.646h-12.586l3.646-3.646-.037-.037zm-4.316 2.977v-6.753l3.602 3.151-3.602 3.602zm10.398-3.602l3.602-3.151v6.75l-3.602-3.599zm3.602-4.691v.21l-6.576 5.754c-.227.198-.621.198-.848 0l-6.576-5.754v-.21h14z"/></svg>

<?xml version="1.0" encoding="iso-8859-1"?>
<!-- Generator: Adobe Illustrator 16.2.1, SVG Export Plug-In . SVG Version: 6.00 Build 0)  -->
<svg version="1.2" baseProfile="tiny" id="Layer_1" xmlns="http://www.w3.org/2000/svg" xmlns:xlink="http://www.w3.org/1999/xlink"
	 x="0px" y="0px" width="24px" height="24px" viewBox="0 0 24 24" xml:space="preserve">
<path d="M19,7H5C3.896,7,3,7.896,3,9v9c0,1.104,0.896,2,2,2h14c1.104,0,2-0.896,2-2V9C21,7.896,20.104,7,19,7z M9.316,14.316
	l1.602,1.4c0.305,0.266,0.691,0.398,1.082,0.398s0.777-0.133,1.082-0.398l1.602-1.4l-0.037,0.037l3.646,3.646H5.707l3.646-3.646
	L9.316,14.316z M5,17.293V10.54l3.602,3.151L5,17.293z M15.398,13.691L19,10.54v6.75L15.398,13.691z M19,9v0.21l-6.576,5.754
	c-0.227,0.198-0.621,0.198-0.848,0L5,9.21V9H19z"/>
</svg>
